X:1
T:Consecration
T:Consecration
T:Phoebe Palmer Knapp
T:Mary Dagworthy James, 1869
T:Public Domain Courtesy of the Cyber Hymnal™
C:Phoebe Palmer Knapp
Z:Public Domain
Z:Courtesy of the Cyber Hymnal™
%%score ( 1 2 ) ( 3 4 )
L:1/8
Q:1/4=130
M:3/4
K:Eb
V:1 treble 
V:2 treble 
V:3 bass 
V:4 bass 
V:1
 [DB]2 | B4 B2 | c4 c2 | F6 | [EG]4 E2 | [CE]4 [B,E]2 | [FA]4 [EG]2 | F6- | [DF]4 [DB]2 | B4 B2 | %10
w: 1.~My|bo- dy,|soul and|spir-|it, Je-|sus, I|give to|Thee,|* A|con- se-|
w: 2.~O|Je- sus,|might- y|Sav-|ior, I|trust in|Thy great|name;|* I|look for|
w: 3.~O|let the|fire, des-|cend-|ing Just|now up-|on my|soul,|* Con-|sume my|
w: 4.~I’m|Thine, O|bless- èd|Je-|sus, Washed|by Thy|pre- cious|blood,|* Now|seal me|
 c4 c2 | F6 | [EG]4 E2 | [CE]4 E2 | G4 F2 | E6- | [B,E]4 ||"^Refrain" B2 | [Ge]4 [EG]2 | %19
w: crat- ed|offer-|ing, Thine|ev- er-|more to|be.||||
w: Thy sal-|va-|tion, Thy|prom- ise|now I|claim.||My|all is|
w: hum- ble|offer-|ing, And|cleanse and|make me|whole!||||
w: by thy|Spir-|it A|sac- ri-|fice to|God.||||
 [EA]4 [Ec]2 | B6 | [EG]4 [FB]2 | [Ee]2 [Ge]4 | [Fd]4 [Ec]2 | B6- | B6 | (c2 z2) x6 | %27
w: ||||||||
w: on the|al-|tar, I’m|wai- ting|for the|fire;||Wait-|
w: ||||||||
w: ||||||||
 [FB]2 [EB]4 x4 | A6 | [EG]4 [Ec]2 | [EB]4 E2 | [DG]4 [DF]2 | E6- | E4 |] %34
w: |||||||
w: ing, wai-|ting,|wait- ing,|I’m wait-|ing for|the||
w: |||||||
w: |||||||
V:2
 x2 | E6 | E6 | (E4 D2) | x4 E2 | x6 | x6 | F4 E2 | x6 | E6 | E6 | (E4 D2) | x4 E2 | x6 | D6 | %15
 B,4 C2 | x4 || x2 | x6 | x6 | (E4 D2) | x6 | x6 | x6 | D4 ^C2 | (D4 E2) | E4 (c4 F2) | x10 | %28
 (E4 D2) | x6 | x6 | x6 | x6 | x4 |] %34
V:3
 [B,,F,]2 | [E,G,]6 | [A,,A,]6 | (F,4 B,2) | B,4 G,2 | A,4 G,2 | B,6 | ([D,B,]4 [C,F,]2 | %8
 [B,,F,]4) [B,,F,]2 | [E,G,]6 | [A,,A,]6 | (F,4 B,2) | B,4 G,2 | [A,,A,]4 [C,A,]2 | B,4 A,2 | %15
 G,4 A,2 | [E,G,]4 || B,2 | E4 D2 | (C2 B,2) [E,A,]2 | ([E,G,]4 [F,A,]2) | B,4 [D,B,]2 | %22
 G,2 (C2 B,2) | (=A,2 G,2) [F,A,]2 | F,4 =E,2 | (F,4 G,2) | [A,,A,]4 [A,D]2 x4 | D2 z2 x6 | %28
 [F,C]4 [B,,B,]2 | [C,G,]4 [A,,A,]2 | [B,,G,]6 | B,4 A,2 | [E,G,]6- | [E,G,]4 |] %34
V:4
 x2 | x6 | x6 | B,,6 | E,6 | E,6 | D,4 E,2 | x6 | x6 | x6 | x6 | B,,6 | E,6 | x6 | B,,6 | E,6- | %16
 x4 || x2 | E,6 | E,4 x2 | x6 | (G,2 E,2) x2 | C,6 | F,4 x2 | B,,6- | B,,6 | x10 | G,4 (C4 G,2) | %28
 x6 | x6 | x6 | B,,6 | x6 | x4 |] %34

